components/icon/svg/24/action_calender.svg

<?xml version="1.0" encoding="UTF-8"?>
<svg width="24px" height="24px" viewBox="0 0 24 24" version="1.1" xmlns="http://www.w3.org/2000/svg" xmlns:xlink="http://www.w3.org/1999/xlink">
    <!-- Generator: Sketch 64 (93537) - https://sketch.com -->
    <title>ic-db_action_calender_24</title>
    <desc>Created with Sketch.</desc>
    <g id="Symbols" stroke="none" stroke-width="1" fill="none" fill-rule="evenodd">
        <g id="24dp-Icon/Action/Calender" fill="#282D37">
            <path d="M15.011773,4 C15.6470117,4 16,4.49225991 16,4.98822704 L16,6 L17.5058364,6 C18.8941436,6 20,7.10585642 20,8.49416362 L20,17.5058364 C20,18.8941436 18.8941436,20 17.5058364,20 L6.49416362,20 C5.10585642,20 4,18.8941436 4,17.5058364 L4,8.49416362 C4,7.12940233 5.10585642,6 6.49416362,6 L8,6 L8,4.98822704 C8,4.49416362 8.37202545,4 8.99624267,4 C9.61915736,4 10,4.49215971 10,4.98822704 L10,6 L14,6 L14,4.98822704 C14,4.49416362 14.3058965,4 15.011773,4 Z M18,12.0235459 L6,12.0235459 L6,17.5058364 C6,17.788187 6.21181304,18 6.49416362,18 L17.5058364,18 C17.788187,18 18,17.788187 18,17.5058364 L18,12.0235459 Z M17.5058364,8 L6.49416362,8 C6.21181304,8 6,8.21181304 6,8.49416362 L6,10 L18,10 L18,8.49416362 C18,8.21181304 17.788187,8 17.5058364,8 Z M6.98822704,15.0035569 C6.98822704,14.4513802 7.43970743,14 7.99178398,14 C8.54115525,14 8.98822704,14.4470718 8.98822704,15.0035569 C8.98822704,15.557437 8.54556385,16 7.99188417,16 C7.43529883,16 6.98822704,15.5529282 6.98822704,15.0035569 Z M10.988227,15.0036571 C10.988227,14.4470718 11.4588447,14 12.008216,14 C12.5601924,14 13.011773,14.4513802 13.011773,15.0035569 C13.011773,15.5529282 12.5647012,16 12.008216,16 C11.4547367,16 10.988227,15.5576374 10.988227,15.0036571 Z M15.011773,15.0035569 C15.011773,14.4470718 15.4588447,14 16.0081158,14 C16.5602926,14 17.011773,14.4514804 17.011773,15.0035569 C17.011773,15.5529282 16.5647012,16 16.008216,16 C15.4544362,16 15.011773,15.5573368 15.011773,15.0035569 Z" id="🎨-Color"></path>
        </g>
    </g>
</svg>

<svg width="24" height="24" xmlns="http://www.w3.org/2000/svg"><path d="M15.012 4c.635 0 .988.492.988.988V6h1.506A2.48 2.48 0 0120 8.494v9.012A2.48 2.48 0 0117.506 20H6.494A2.48 2.48 0 014 17.506V8.494A2.495 2.495 0 016.494 6H8V4.988C8 4.494 8.372 4 8.996 4A.983.983 0 0110 4.988V6h4V4.988c0-.494.306-.988 1.012-.988zM18 12.024H6v5.482c0 .282.212.494.494.494h11.012a.483.483 0 00.494-.494v-5.482zM17.506 8H6.494A.483.483 0 006 8.494V10h12V8.494A.483.483 0 0017.506 8zM6.988 15.004a1 1 0 112 0 .992.992 0 01-.996.996 1 1 0 01-1.004-.996zm4 0c0-.557.47-1.004 1.02-1.004a1 1 0 110 2c-.553 0-1.02-.442-1.02-.996zm4.024 0a1 1 0 112 0 1 1 0 01-1.004.996.992.992 0 01-.996-.996z" fill="#282D37" fill-rule="evenodd"/></svg>
